img/heart-footer.svg

<svg width="56" height="56" viewBox="0 0 56 56" fill="none" xmlns="http://www.w3.org/2000/svg">
<rect width="56" height="56" rx="28" fill="#1576D8"/>
<path d="M37.6562 20.9531C35.0781 18.75 31.2812 19.1719 28.8906 21.6094L28 22.5469L27.0625 21.6094C24.7188 19.1719 20.875 18.75 18.2969 20.9531C15.3438 23.4844 15.2031 27.9844 17.8281 30.7031L26.9219 40.0781C27.4844 40.6875 28.4688 40.6875 29.0312 40.0781L38.125 30.7031C40.75 27.9844 40.6094 23.4844 37.6562 20.9531Z" fill="white"/>
</svg>

<svg width="56" height="56" fill="none" xmlns="http://www.w3.org/2000/svg"><rect width="56" height="56" rx="28" fill="#1576D8"/><path d="M37.656 20.953c-2.578-2.203-6.375-1.781-8.765.656l-.891.938-.938-.938c-2.343-2.437-6.187-2.859-8.765-.656-2.953 2.531-3.094 7.031-.469 9.75l9.094 9.375c.562.61 1.547.61 2.11 0l9.093-9.375c2.625-2.719 2.484-7.219-.469-9.75Z" fill="#fff"/></svg>
